!!!COM: Gabrieli, Giovanni
!!!CDT: ~1555///-1612/08//
!!!ODT: 1597
!!!OTL: Plaudite
!!!AGN: Polychoral motet (psallite)
**kern	**kern	**kern	**kern	**kern	**kern	**kern	**kern	**kern	**kern	**kern	**kern
*staff12	*staff11	*staff10	*staff9	*staff8	*staff7	*staff6	*staff5	*staff4	*staff3	*staff2	*staff1
*Ivox	*Ivox	*Ivox	*Ivox	*Ivox	*Ivox	*Ivox	*Ivox	*Ivox	*Ivox	*Ivox	*Ivox
=1-	=1-	=1-	=1-	=1-	=1-	=1-	=1-	=1-	=1-	=1-	=1-
*clefF4	*clefF4	*clefF4	*clefG2	*clefF4	*clefF4	*clefG2	*clefG2	*clefF4	*clefG2	*clefG2	*clefG2
*k[]	*k[]	*k[]	*k[]	*k[]	*k[]	*k[]	*k[]	*k[]	*k[]	*k[]	*k[]
*M4/4	*M4/4	*M4/4	*M4/4	*M4/4	*M4/4	*M4/4	*M4/4	*M4/4	*M4/4	*M4/4	*M4/4
*MM116	*MM116	*MM116	*MM116	*MM116	*MM116	*MM116	*MM116	*MM116	*MM116	*MM116	*MM116
1r	1r	1r	1r	1r	4.d	1r	1r	2r	1r	1r	1r
.	.	.	.	.	8d	.	.	.	.	.	.
.	.	.	.	.	2d	.	.	4.G	.	.	.
.	.	.	.	.	.	.	.	8G	.	.	.
=2	=2	=2	=2	=2	=2	=2	=2	=2	=2	=2	=2
1r	1r	1r	4.g	1r	1r	1r	1r	2G	1r	1r	1r
.	.	.	8g	.	.	.	.	.	.	.	.
.	.	.	2g	.	.	.	.	2r	.	.	.
=3	=3	=3	=3	=3	=3	=3	=3	=3	=3	=3	=3
1r	1r	1r	1r	1r	1r	1r	1r	8r	4r	4r	8r
.	.	.	.	.	.	.	.	8r	.	.	8r
.	.	.	.	.	.	.	.	8.GL	8.gL	8.bL	8.ddL
.	.	.	.	.	.	.	.	16G	16g	16b	16dd
.	.	.	.	.	.	.	.	8cL	8gL	8ccL	8eeL
.	.	.	.	.	.	.	.	8d	8f	8a	8dd
.	.	.	.	.	.	.	.	4A	4e	4a	4cc#
=4	=4	=4	=4	=4	=4	=4	=4	=4	=4	=4	=4
4r	4r	2r	4r	4r	4r	4r	4r	4D	4f#	4a	2dd
2G	2G	.	2g	2GG	2G	2B	2dd	2d	2g	2b	.
.	.	[2d	.	.	.	.	.	.	.	.	4r
4G	4B	.	4g	4GG	4D	4B	4b	4d	4G	4g	[4dd
=5	=5	=5	=5	=5	=5	=5	=5	=5	=5	=5	=5
1D	2d	4d	4f#	1D	4.D	1d	8aL	1d	4r	4a	4dd
.	.	.	.	.	.	.	8d	.	.	.	.
.	.	4D	2g	.	.	.	[4dd	.	8r	4g	4b
.	.	.	.	.	8E	.	.	.	[8d	.	.
.	2D	4A	.	.	8F#L	.	8ddL	.	8dL	4.a	8aL
.	.	.	.	.	8G	.	16cc	.	8d	.	8d
.	.	.	.	.	.	.	16b	.	.	.	.
.	.	4D	4f#	.	4A	.	4a	.	4d	.	4dd
.	.	.	.	.	.	.	.	.	.	8d	.
=6	=6	=6	=6	=6	=6	=6	=6	=6	=6	=6	=6
*M3/4	*M3/4	*M3/4	*M3/4	*M3/4	*M3/4	*M3/4	*M3/4	*M3/4	*M3/4	*M3/4	*M3/4
2GG	2D	2d	2g	2.G	2.G	2.d	2.b	2.d	2.B	2.d	2.dd
4GG	4G	4B	4d	.	.	.	.	.	.	.	.
=7	=7	=7	=7	=7	=7	=7	=7	=7	=7	=7	=7
2C	2G	2c	2e	2.r	2.r	2.r	2.r	2.r	2.r	2.r	2.r
4D	4F	4A	4d	.	.	.	.	.	.	.	.
=8	=8	=8	=8	=8	=8	=8	=8	=8	=8	=8	=8
2.GG	2.G	2.B	2.d	2.r	2.r	2.r	2.r	2r	2r	2r	2r
.	.	.	.	.	.	.	.	4G	4g	4b	4dd
=9	=9	=9	=9	=9	=9	=9	=9	=9	=9	=9	=9
2.r	2.r	2.r	2.r	2.r	2.r	2.r	2.r	2c	2g	2cc	2ee
.	.	.	.	.	.	.	.	4d	4f	4a	4dd
=10	=10	=10	=10	=10	=10	=10	=10	=10	=10	=10	=10
2.r	2.r	2.r	2.r	2r	2r	2r	2r	2G	2g	2b	2dd
.	.	.	.	4D	4A	4d	4a	4D	4f	4r	4dd
=11	=11	=11	=11	=11	=11	=11	=11	=11	=11	=11	=11
2.r	2.r	2.r	2.r	2GG	2G	2d	2b-	4G	4d	4.g	2dd
.	.	.	.	.	.	.	.	4E	2e	.	.
.	.	.	.	.	.	.	.	.	.	4e	.
.	.	.	.	4AA	4E	4A	4a	4A	.	.	4cc
.	.	.	.	.	.	.	.	.	.	8a	.
=12	=12	=12	=12	=12	=12	=12	=12	=12	=12	=12	=12
2r	2.r	2r	2r	2D	2F#	2A	2a	2D	2d	2a	2dd
4G	.	4d	4g	4GG	4G	4B	4dd	4d	4r	4r	4b
=13	=13	=13	=13	=13	=13	=13	=13	=13	=13	=13	=13
2D	4A	2d	2f#	2D	2A	2d	2dd	2d	4d	4.a	2a
.	4D	.	.	.	.	.	.	.	[4A	.	.
.	.	.	.	.	.	.	.	.	.	8d	.
4D	4D	4D	4f#	4D	4A	4d	4dd	4d	8AL	4d	4a
.	.	.	.	.	.	.	.	.	8d	.	.
=14	=14	=14	=14	=14	=14	=14	=14	=14	=14	=14	=14
*M4/4	*M4/4	*M4/4	*M4/4	*M4/4	*M4/4	*M4/4	*M4/4	*M4/4	*M4/4	*M4/4	*M4/4
2GG	2D	2d	2g	2G	2G	2d	2dd	2d	2B	4d	2b
.	.	.	.	.	.	.	.	.	.	[4g	.
2r	2r	2r	2r	2r	2r	2r	2r	4.G	4.d	8gL	4.b
.	.	.	.	.	.	.	.	.	.	8g	.
.	.	.	.	.	.	.	.	.	.	[4g	.
.	.	.	.	.	.	.	.	8G	8d	.	8b
=15	=15	=15	=15	=15	=15	=15	=15	=15	=15	=15	=15
1r	1r	1r	1r	1r	1r	1r	1r	4G	4d	4g	4b
.	.	.	.	.	.	.	.	4c	4e	4a	4cc
.	.	.	.	.	.	.	.	[2B-	[2f	[2b-	[2dd
=16	=16	=16	=16	=16	=16	=16	=16	=16	=16	=16	=16
2r	1r	2r	2r	2r	2r	2r	2r	4B-	4f	4b-	4dd
.	.	.	.	.	.	.	.	4G	4g	4b-	4dd
4r	.	4r	4r	4r	4r	4r	4r	4A	4e	2a	4cc#
8AL	.	8cL	8aL	8AAL	8AL	8eL	8ccL	8EL	8eL	.	8eeL
8A	.	8c	8a	8AA	8A	8e	8cc	8E	8e	.	8ee
=17	=17	=17	=17	=17	=17	=17	=17	=17	=17	=17	=17
4E	4r	4e	4g#	4E	4B	8eL	8.bL	4E	4e	1r	4ee
.	.	.	.	.	.	8B	.	.	.	.	.
.	.	.	.	.	.	.	16e	.	.	.	.
4A	[4A	4e	4a	4AA	4A	4c#	4e	4E	4e	.	4cc#
4.D	8AL	4.d	4.f#	2r	2r	2r	2r	2r	2r	.	2r
.	8A	.	.	.	.	.	.	.	.	.	.
.	[4A	.	.	.	.	.	.	.	.	.	.
8D	.	8d	8f#	.	.	.	.	.	.	.	.
=18	=18	=18	=18	=18	=18	=18	=18	=18	=18	=18	=18
4D	4A	4d	4f#	1r	1r	1r	1r	1r	1r	1r	1r
4G	4B	4e	4g	.	.	.	.	.	.	.	.
[2F	[2c	[2f	[2a	.	.	.	.	.	.	.	.
=19	=19	=19	=19	=19	=19	=19	=19	=19	=19	=19	=19
4F	4c	4f	4a	2r	2r	2r	2r	2r	2r	2r	2r
4D	4d	4f	4a	.	.	.	.	.	.	.	.
2E	2B	2e	2g#	4.E	4.B	4.e	4.g#	4.E	4.B	4.e	4.b
.	.	.	.	8E	8B	8e	8g#	8E	8B	8e	8b
=20	=20	=20	=20	=20	=20	=20	=20	=20	=20	=20	=20
1r	1r	1r	1r	4E	4B	4e	4g#	4E	4e	4e	4b
.	.	.	.	4AA	4e	4e	4a	4E	4e	4a	4cc#
.	.	.	.	4.D	2A	[2d	8aL	8F#L	4r	4.a	[2dd
.	.	.	.	.	.	.	8g	8G	.	.	.
.	.	.	.	.	.	.	8f	[4A	[4d	.	.
.	.	.	.	8C	.	.	8e	.	.	8A	.
=21	=21	=21	=21	=21	=21	=21	=21	=21	=21	=21	=21
1r	1r	1r	1r	4BB	2B	4d	4d	4A	8dL	4.d	4dd
.	.	.	.	.	.	.	.	.	8B	.	.
.	.	.	.	4BB	.	4B	4d	4G#	4B	.	4dd
.	.	.	.	.	.	.	.	.	.	8B	.
.	.	.	.	2AA	2E	2c#	2a	4A	4r	4e	4cc#
.	.	.	.	.	.	.	.	8AL	8c#L	8aL	8eeL
.	.	.	.	.	.	.	.	8A	8c#	8a	8ee
=22	=22	=22	=22	=22	=22	=22	=22	=22	=22	=22	=22
4r	4r	4r	4r	4r	4r	4r	4r	4E	4B	4g#	4ee
8AAL	8EL	8c#L	8aL	8AL	8AL	8eL	8eeL	4A	4A	4a	4cc#
8AA	8E	8c#	8a	8A	8A	8e	8ee	.	.	.	.
4E	4E	4e	4g#	4E	4B	4e	4ee	4r	4r	4r	4r
4AA	4E	4e	4a	4A	4A	4e	4cc#	8.AL	8.c#L	8.eL	8.aL
.	.	.	.	.	.	.	.	16A	16c#	16e	16a
=23	=23	=23	=23	=23	=23	=23	=23	=23	=23	=23	=23
4r	4r	4r	4r	2r	2r	2r	2r	8FL	8dL	8fL	8aL
.	.	.	.	.	.	.	.	8D	8d	8a	8f
8.AL	8.AL	8.eL	8.aL	.	.	.	.	4A	4c	4a	4e
16A	16A	16A	16a	.	.	.	.	.	.	.	.
8FL	8AL	8dL	8aL	4r	4r	4r	4r	4D	4d	4a	4d
8D	8A	8d	8f	.	.	.	.	.	.	.	.
4A	4A	4c	4e	8.AL	8.AL	8.eL	8.aL	4r	4r	4r	4r
.	.	.	.	16A	16A	16A	16a	.	.	.	.
=24	=24	=24	=24	=24	=24	=24	=24	=24	=24	=24	=24
4D	4A	4d	4d	8FL	8AL	8dL	8aL	8.dL	8.AL	8.aL	8.ddL
.	.	.	.	8D	8d	8d	8f	.	.	.	.
.	.	.	.	.	.	.	.	16d	16A	16a	16dd
4r	4r	4r	4r	4G	16GLL	4d	8g	8BL	8BL	8gL	8ddL
.	.	.	.	.	16A	.	.	.	.	.	.
.	.	.	.	.	16B	.	8d	8G	8d	8g	8b
.	.	.	.	.	16G	.	.	.	.	.	.
8.DL	8.DL	8.AL	8.dL	4D	4A	2d	8.ddL	4d	4d	4f#	4a
16D	16D	16D	16d	.	.	.	16dd	.	.	.	.
8BBL	8DL	8GL	8dL	4r	4G	.	8ddL	8GL	4d	4g	4b
8GG	8D	8G	8g	.	.	.	8b	[8d	.	.	.
=25	=25	=25	=25	=25	=25	=25	=25	=25	=25	=25	=25
4D	4D	4A	4f#	8.DL	4r	8.dL	8aL	8dL	4r	4r	8.ddL
.	.	.	.	.	.	.	8d	8A	.	.	.
.	.	.	.	16D	.	16d	.	.	.	.	16dd
4GG	4D	4G	4g	8BBL	8.dL	8dL	8.ddL	8.BL	8.dL	8.dL	8ddL
.	.	.	.	8GG	.	8g	.	.	.	.	8b
.	.	.	.	.	16d	.	16dd	16c	16G	16d	.
2r	2r	2r	2r	2D	8dL	8f#L	8ddL	4d	8AL	8dL	16aLL
.	.	.	.	.	.	.	.	.	.	.	16d
.	.	.	.	.	8G	4g	8b	.	8B	8d	8.dd
.	.	.	.	.	16ALL	.	4a	4D	4d	4d	.
.	.	.	.	.	16D	.	.	.	.	.	16cc
.	.	.	.	.	8d	8f#	.	.	.	.	8a
=26	=26	=26	=26	=26	=26	=26	=26	=26	=26	=26	=26
*M3/4	*M3/4	*M3/4	*M3/4	*M3/4	*M3/4	*M3/4	*M3/4	*M3/4	*M3/4	*M3/4	*M3/4
2r	2r	2r	2r	2.GG	2.d	2.a	2.g	2.G	2.d	2.B	2.b
4GG	4G	4B	4d	.	.	.	.	.	.	.	.
=27	=27	=27	=27	=27	=27	=27	=27	=27	=27	=27	=27
2C	2G	2c	2e	2.r	2.r	2.r	2.r	2.r	2.r	2.r	2.r
4D	4F	4A	4d	.	.	.	.	.	.	.	.
=28	=28	=28	=28	=28	=28	=28	=28	=28	=28	=28	=28
2.GG	2.G	2.B	2.d	2.r	2.r	2.r	2.r	2r	2r	2r	2r
.	.	.	.	.	.	.	.	4G	4g	4b	4dd
=29	=29	=29	=29	=29	=29	=29	=29	=29	=29	=29	=29
2.r	2.r	2.r	2.r	2.r	2.r	2.r	2.r	2c	2g	2cc	2ee
.	.	.	.	.	.	.	.	4d	4f	4a	4dd
=30	=30	=30	=30	=30	=30	=30	=30	=30	=30	=30	=30
2.r	2.r	2.r	2.r	2r	2r	2r	2r	2G	2g	2b	2dd
.	.	.	.	4D	4A	4d	4a	4D	4f	4r	4dd
=31	=31	=31	=31	=31	=31	=31	=31	=31	=31	=31	=31
2.r	2.r	2.r	2.r	2GG	2G	2d	2b-	4G	4d	4.g	2dd
.	.	.	.	.	.	.	.	4E	2e	.	.
.	.	.	.	.	.	.	.	.	.	4e	.
.	.	.	.	4AA	4E	4A	4a	4A	.	.	4cc
.	.	.	.	.	.	.	.	.	.	8a	.
=32	=32	=32	=32	=32	=32	=32	=32	=32	=32	=32	=32
2r	2.r	2r	2r	2D	2F#	2A	2a	2D	2d	2a	2dd
4G	.	4d	4g	4GG	4G	4B	4dd	4d	4r	4r	4b
=33	=33	=33	=33	=33	=33	=33	=33	=33	=33	=33	=33
2D	4A	2d	2f#	2D	2A	2d	2dd	2d	4d	4.a	2a
.	4D	.	.	.	.	.	.	.	[4A	.	.
.	.	.	.	.	.	.	.	.	.	8d	.
4D	4D	4D	4f#	4D	4A	4d	4dd	4d	8AL	4d	4a
.	.	.	.	.	.	.	.	.	8d	.	.
=34	=34	=34	=34	=34	=34	=34	=34	=34	=34	=34	=34
*M4/4	*M4/4	*M4/4	*M4/4	*M4/4	*M4/4	*M4/4	*M4/4	*M4/4	*M4/4	*M4/4	*M4/4
2GG	2D	2d	2g	2G	4G	2d	2dd	2d	2B	2d	2b
.	.	.	.	.	[4G	.	.	.	.	.	.
2r	2r	2r	2r	4.C	8GL	4.e	4.g	2r	2r	2r	2r
.	.	.	.	.	8G	.	.	.	.	.	.
.	.	.	.	.	4G	.	.	.	.	.	.
.	.	.	.	8C	.	8e	8g	.	.	.	.
=35	=35	=35	=35	=35	=35	=35	=35	=35	=35	=35	=35
1r	1r	1r	1r	4C	8EL	4e	4cc	1r	1r	1r	1r
.	.	.	.	.	8E	.	.	.	.	.	.
.	.	.	.	8AAL	2A	8eL	8ccL	.	.	.	.
.	.	.	.	8AA	.	8e	8cc	.	.	.	.
.	.	.	.	2E	.	4.e	2b	.	.	.	.
.	.	.	.	.	4G	.	.	.	.	.	.
.	.	.	.	.	.	8d	.	.	.	.	.
=36	=36	=36	=36	=36	=36	=36	=36	=36	=36	=36	=36
1r	1r	1r	1r	2AA	2A	4.c	4a	1r	1r	1r	1r
.	.	.	.	.	.	.	[4cc	.	.	.	.
.	.	.	.	.	.	8B	.	.	.	.	.
.	.	.	.	4.F	4r	4A	8ccL	.	.	.	.
.	.	.	.	.	.	.	8a	.	.	.	.
.	.	.	.	.	[4A	4f	[4dd	.	.	.	.
.	.	.	.	8G	.	.	.	.	.	.	.
=37	=37	=37	=37	=37	=37	=37	=37	=37	=37	=37	=37
2r	2r	2r	2r	4A	4A	4.e	4dd	4r	2r	2r	2r
.	.	.	.	4AA	4A	.	4cc	4.A	.	.	.
.	.	.	.	.	.	8e	.	.	.	.	.
4.D	4.D	4.d	4.f#	2D	2A	2d	2dd	.	4.A	4.d	4.a
.	.	.	.	.	.	.	.	8A	.	.	.
.	.	.	.	.	.	.	.	4A	.	.	.
8D	8A	8d	8f#	.	.	.	.	.	8A	8d	8a
=38	=38	=38	=38	=38	=38	=38	=38	=38	=38	=38	=38
4D	4A	8AL	4f#	1r	1r	1r	1r	8DL	4A	4d	4a
.	.	4d	.	.	.	.	.	8D	.	.	.
8BBL	8DL	.	8gL	.	.	.	.	2G	8GL	8dL	8bL
8BB	8G	8B	8g	.	.	.	.	.	8G	8d	8b
2AA	2C	4e	2a	.	.	.	.	.	4.c	4e	2cc
.	.	4A	.	.	.	.	.	4F#	.	4c	.
.	.	.	.	.	.	.	.	.	8A	.	.
=39	=39	=39	=39	=39	=39	=39	=39	=39	=39	=39	=39
2GG	2D	2B	4d	1r	1r	1r	1r	2G	2d	2g	2b
.	.	.	[4g	.	.	.	.	.	.	.	.
4.C	[2E	2c	8gL	.	.	.	.	2r	2r	2r	2r
.	.	.	8e	.	.	.	.	.	.	.	.
.	.	.	[4a	.	.	.	.	.	.	.	.
8D	.	.	.	.	.	.	.	.	.	.	.
=40	=40	=40	=40	=40	=40	=40	=40	=40	=40	=40	=40
4E	4E	4.B	4a	1r	1r	1r	1r	1r	1r	1r	2r
4EE	4E	.	4g	.	.	.	.	.	.	.	.
.	.	8B	.	.	.	.	.	.	.	.	.
2AA	2E	2A	2a	.	.	.	.	.	.	.	4r
.	.	.	.	.	.	.	.	.	.	.	[4cc
=41	=41	=41	=41	=41	=41	=41	=41	=41	=41	=41	=41
1r	2r	1r	1r	1r	1r	1r	1r	4.F	2f	2a	8ccL
.	.	.	.	.	.	.	.	.	.	.	8a
.	.	.	.	.	.	.	.	.	.	.	2dd
.	.	.	.	.	.	.	.	8G	.	.	.
.	8r	.	.	.	.	.	.	4A	4.e	4r	.
.	8A	.	.	.	.	.	.	.	.	.	.
.	8AL	.	.	.	.	.	.	4A	.	4a	4cc
.	8A	.	.	.	.	.	.	.	8e	.	.
=42	=42	=42	=42	=42	=42	=42	=42	=42	=42	=42	=42
4D	4.F#	4A	2r	2r	2r	1r	2r	2D	2d	4a	4dd
8DL	.	8AL	.	.	.	.	.	.	.	4d	4dd
8D	8F#	8A	.	.	.	.	.	.	.	.	.
4.BB	4G	4.B	4d	4GG	4B	.	4g	2r	4g	8dL	8ddL
.	.	.	.	.	.	.	.	.	.	8d	8dd
.	4r	.	8dL	8GGL	8BL	.	8gL	.	8dL	[4g	[4b
8BB	.	8G	8d	8GG	8B	.	8g	.	8d	.	.
=43	=43	=43	=43	=43	=43	=43	=43	=43	=43	=43	=43
8EL	2r	8GL	4.g	4.EE	4.B	4e	4.b	4G	8.eL	8gL	8bL
8E	.	8B	.	.	.	.	.	.	.	8g	8b
.	.	.	.	.	.	.	.	.	16f	.	.
8E	.	8B	.	.	.	8eL	.	8GL	8gL	8e	8ee
8E	.	8B	8g	8EE	8E	8e	8b	8G	8g	8e	8ee
4.C	4E	4c	8eL	8AAL	8EL	4.e	8aL	4.c	2a	8eL	8eeL
.	.	.	8e	8AA	8c	.	8a	.	.	8e	8ee
.	8EL	4A	8e	8AA	8c	.	8a	.	.	[4a	[4cc
8C	8E	.	8e	8AA	8c	8A	8a	8c	.	.	.
=44	=44	=44	=44	=44	=44	=44	=44	=44	=44	=44	=44
4.F	4F	2A	4.a	4.FF	4c	8AL	4.cc	8AL	2r	8aL	8ccL
.	.	.	.	.	.	8f	.	8A	.	8a	8cc
.	4c	.	.	.	4F	8f	.	8A	.	8f	[4ff
8E	.	.	8a	8FF	.	8f	8cc	8A	.	8f	.
2D	2F	2r	2f	4.BB-	2F	4f	2b-	4.d	4f	8fL	8ffL
.	.	.	.	.	.	.	.	.	.	8f	8ee
.	.	.	.	.	.	4B-	.	.	8fL	[4b-	[4dd
.	.	.	.	8AA	.	.	.	8d	8f	.	.
=45	=45	=45	=45	=45	=45	=45	=45	=45	=45	=45	=45
2G	2r	1d	4r	2GG	4.B-	8.B-L	4.b-	2B-	4g	8b-L	4dd
.	.	.	.	.	.	.	.	.	.	8b-	.
.	.	.	.	.	.	16c	.	.	.	.	.
.	.	.	2g	.	.	4d	.	.	8dL	4g	[4dd
.	.	.	.	.	16A	.	8cc	.	8d	.	.
.	.	.	.	.	16G	.	.	.	.	.	.
2D	2D	.	.	2D	8FL	2d	2dd	2A	4d	4.a	8ddL
.	.	.	.	.	8D	.	.	.	.	.	16cc
.	.	.	.	.	.	.	.	.	.	.	16b
.	.	.	4f	.	4d	.	.	.	4d	.	4a
.	.	.	.	.	.	.	.	.	.	8d	.
=46	=46	=46	=46	=46	=46	=46	=46	=46	=46	=46	=46
*M3/4	*M3/4	*M3/4	*M3/4	*M3/4	*M3/4	*M3/4	*M3/4	*M3/4	*M3/4	*M3/4	*M3/4
2GG	2D	2d	2g	2.G	2.B	2.d	2.dd	2.G	2.r	2.d	2.b
4GG	4G	4B	4d	.	.	.	.	.	.	.	.
=47	=47	=47	=47	=47	=47	=47	=47	=47	=47	=47	=47
2C	2G	2c	2e	2.r	2.r	2.r	2.r	2.r	2.r	2.r	2.r
4D	4F	4A	4d	.	.	.	.	.	.	.	.
=48	=48	=48	=48	=48	=48	=48	=48	=48	=48	=48	=48
2.GG	2.G	2.B	2.d	2.r	2.r	2.r	2.r	2r	2r	2r	2r
.	.	.	.	.	.	.	.	4G	4g	4b	4dd
=49	=49	=49	=49	=49	=49	=49	=49	=49	=49	=49	=49
2.r	2.r	2.r	2.r	2.r	2.r	2.r	2.r	2c	2g	2cc	2ee
.	.	.	.	.	.	.	.	4d	4f	4a	4dd
=50	=50	=50	=50	=50	=50	=50	=50	=50	=50	=50	=50
2.r	2.r	2.r	2.r	2r	2r	2r	2r	2G	2g	2b	2dd
.	.	.	.	4D	4A	4d	4a	4D	4f	4r	4dd
=51	=51	=51	=51	=51	=51	=51	=51	=51	=51	=51	=51
2.r	2.r	2.r	2.r	2GG	2G	2d	2b-	4G	4d	4.g	2dd
.	.	.	.	.	.	.	.	4E	2e	.	.
.	.	.	.	.	.	.	.	.	.	4e	.
.	.	.	.	4AA	4E	4A	4a	4A	.	.	4cc
.	.	.	.	.	.	.	.	.	.	8a	.
=52	=52	=52	=52	=52	=52	=52	=52	=52	=52	=52	=52
2r	2.r	2r	2r	2D	2F#	2A	2a	2D	2d	2a	2dd
4G	.	4d	4g	4GG	4G	4B	4dd	4d	4r	4r	4b
=53	=53	=53	=53	=53	=53	=53	=53	=53	=53	=53	=53
2D	4A	2d	2f#	2D	2A	2d	2dd	2d	4d	4.a	2a
.	4D	.	.	.	.	.	.	.	[4A	.	.
.	.	.	.	.	.	.	.	.	.	8d	.
4D	4D	4D	4f#	4D	4A	4d	4dd	4d	8AL	4d	4a
.	.	.	.	.	.	.	.	.	8d	.	.
=54	=54	=54	=54	=54	=54	=54	=54	=54	=54	=54	=54
*M4/4	*M4/4	*M4/4	*M4/4	*M4/4	*M4/4	*M4/4	*M4/4	*M4/4	*M4/4	*M4/4	*M4/4
2GG	2D	2d	2g	2G	2G	2d	2dd	2d	2B	2d	2b
4r	4r	4r	4r	2r	2r	2r	2r	2r	2r	2r	2r
[4C	[4G	[4c	[4e	.	.	.	.	.	.	.	.
=55	=55	=55	=55	=55	=55	=55	=55	=55	=55	=55	=55
4C	4G	4c	4e	1r	1r	1r	1r	1r	1r	1r	1r
4AA	4A	4c	4f	.	.	.	.	.	.	.	.
4.BB-	8DL	4.d	4f	.	.	.	.	.	.	.	.
.	8E	.	.	.	.	.	.	.	.	.	.
.	[4F	.	4f	.	.	.	.	.	.	.	.
8AA	.	8c	.	.	.	.	.	.	.	.	.
=56	=56	=56	=56	=56	=56	=56	=56	=56	=56	=56	=56
2GG	4F	2B-	2g	1r	1r	1r	1r	1r	1r	1r	1r
.	4E	.	.	.	.	.	.	.	.	.	.
4.FF	4F	4.A	4.c	.	.	.	.	.	.	.	.
.	4A	.	.	.	.	.	.	.	.	.	.
8FF	.	8c	8f	.	.	.	.	.	.	.	.
=57	=57	=57	=57	=57	=57	=57	=57	=57	=57	=57	=57
8AAL	8AL	8cL	8fL	2r	2r	2r	2r	1r	1r	1r	1r
8C	8G	8c	8e	.	.	.	.	.	.	.	.
4GG	4G	4B	4d	.	.	.	.	.	.	.	.
4C	4G	4c	4c	8r	8r	8r	8r	.	.	.	.
.	.	.	.	8C	8G	8e	8cc	.	.	.	.
4r	4r	4r	4r	8EL	8GL	8eL	8ccL	.	.	.	.
.	.	.	.	8G	8G	8d	8b	.	.	.	.
=58	=58	=58	=58	=58	=58	=58	=58	=58	=58	=58	=58
1r	1r	1r	1r	4D	4F#	4d	4a	4r	4r	4r	4r
.	.	.	.	4GG	4G	4d	4g	2G	2d	2g	2b
.	.	.	.	2r	2r	2r	2r	.	.	.	.
.	.	.	.	.	.	.	.	4E	4e	4g	4cc
=59	=59	=59	=59	=59	=59	=59	=59	=59	=59	=59	=59
1r	1r	1r	1r	1r	1r	1r	1r	4.F	8AL	4.a	4cc
.	.	.	.	.	.	.	.	.	8B	.	.
.	.	.	.	.	.	.	.	.	2c	.	4cc
.	.	.	.	.	.	.	.	8E	.	8g	.
.	.	.	.	.	.	.	.	2D	.	2f	2dd
.	.	.	.	.	.	.	.	.	4B	.	.
=60	=60	=60	=60	=60	=60	=60	=60	=60	=60	=60	=60
2r	2r	2r	2r	8r	8r	8r	8r	4C	4c	4e	2g
.	.	.	.	8C	8G	8e	8cc	.	.	.	.
.	.	.	.	8EL	8GL	8eL	8ccL	4r	4r	4r	.
.	.	.	.	8G	8G	8d	8b	.	.	.	.
4r	4r	4r	4r	4D	4F#	4d	4a	2r	2r	2r	2r
8r	8r	8r	8r	4GG	4G	4d	4g	.	.	.	.
8GG	8D	8B	8g	.	.	.	.	.	.	.	.
=61	=61	=61	=61	=61	=61	=61	=61	=61	=61	=61	=61
8BBL	8DL	8BL	8gL	2r	2r	2r	2r	2r	2r	2r	2r
8D	8D	8A	8f	.	.	.	.	.	.	.	.
4AA	4C	4A	4e	.	.	.	.	.	.	.	.
4D	4D	4A	4d	8r	8r	8r	8r	8r	8r	8r	8r
.	.	.	.	8D	8A	8d	8a	8D	8d	8f	8dd
4r	4r	4r	4r	8DL	8AL	8fL	8aL	8FL	8AL	8fL	8ddL
.	.	.	.	8AA	8E	8c	8a	8A	8A	8e	8cc
=62	=62	=62	=62	=62	=62	=62	=62	=62	=62	=62	=62
2r	2r	4r	2r	4E	4E	4e	4g#	4E	4B	4e	4b
.	.	[4c	.	4AA	4E	4e	4a	4A	4c	4e	4a
[2F	[2A	8cL	[2f	[2FF	4.c	2r	[2a	4r	[2A	2f	[2cc
.	.	8B	.	.	.	.	.	.	.	.	.
.	.	8A	.	.	.	.	.	[4c	.	.	.
.	.	8G	.	.	8B	.	.	.	.	.	.
=63	=63	=63	=63	=63	=63	=63	=63	=63	=63	=63	=63
4F	4A	4F	4f	4FF	8AL	2.f	4a	8cL	4A	4c	4cc
.	.	.	.	.	8G	.	.	8B	.	.	.
4F	4A	4c	4f	4FF	4F	.	4a	8A	4A	2f	4cc
.	.	.	.	.	.	.	.	8G	.	.	.
[2BB-	[2D	4.B-	[2f	[2BB-	4F	.	[2b-	4F	[2d	.	[2dd
.	.	.	.	.	[4B-	4f	.	4F	.	4f	.
.	.	8F	.	.	.	.	.	.	.	.	.
=64	=64	=64	=64	=64	=64	=64	=64	=64	=64	=64	=64
4BB-	4D	[2F	4f	4BB-	8B-L	4d	4b-	4.B-	4d	1f	4dd
.	.	.	.	.	8F	.	.	.	.	.	.
4BB-	4F	.	4f	4BB-	4F	4B-	4b-	.	4d	.	4dd
.	.	.	.	.	.	.	.	8F	.	.	.
8FL	8FL	8FL	8fL	2FF	4r	2c	2a	2F	2A	.	2cc
8F	8A	8c	8f	.	.	.	.	.	.	.	.
8F	8A	8c	8f	.	8r	.	.	.	.	.	.
8F	8A	8c	8f	.	8c	.	.	.	.	.	.
=65	=65	=65	=65	=65	=65	=65	=65	=65	=65	=65	=65
4C	4G	4c	4e	8r	8cL	8r	8r	8r	8r	8r	8r
.	.	.	.	8C	8c	8c	8g	8C	8e	8g	8cc
4C	4G	4c	4e	8CL	2G	8cL	8gL	8CL	8eL	8gL	8ccL
.	.	.	.	8C	.	8c	8g	8C	8e	8g	8cc
8r	8r	8r	8r	4GG	.	4d	4g	4G	4d	4g	4b
8G	8B	8d	8g	.	.	.	.	.	.	.	.
8GL	8BL	8dL	8gL	4GG	4d	4B	4g	4G	4d	4g	4b
8G	8B	8d	8g	.	.	.	.	.	.	.	.
=66	=66	=66	=66	=66	=66	=66	=66	=66	=66	=66	=66
8DL	8AL	8dL	8fL	2r	2r	2r	2r	2r	2r	2r	2r
16D	16A	16d	16f	.	.	.	.	.	.	.	.
16D	16A	16d	16f	.	.	.	.	.	.	.	.
8AL	8AL	8c#L	8eL	.	.	.	.	.	.	.	.
8A	8AA	8c#	8e	.	.	.	.	.	.	.	.
2D	2A	2d	2d	8r	8r	8r	8r	8r	8r	8r	8r
.	.	.	.	8D	8A	8d	8a	8D	8A	8f	8dd
.	.	.	.	8DL	8AL	8dL	8aL	8DL	8AL	8fL	8ddL
.	.	.	.	8D	8D	8A	8a	8D	8A	8f	8dd
=67	=67	=67	=67	=67	=67	=67	=67	=67	=67	=67	=67
8r	1r	8r	8r	8AAL	8EL	8AL	8aL	8AL	8cL	8eL	8ccL
8A	.	8e	8a	16AA	16E	8A	16a	16A	16c	16e	16cc
.	.	.	.	16AA	16E	.	16e	16A	16c	16e	16cc
8EL	.	8eL	8aL	8EL	8EL	4r	8eL	8BL	8eL	8eL	8bL
8E	.	8e	8g	8E	8E	.	8e	8E	8e	8B	8b
4A	.	4c	4a	8AAL	2E	8r	8aL	8EL	8eL	2c	8aL
.	.	.	.	8AA	.	8e	8g	8E	8e	.	8cc
4r	.	4r	4r	8C	.	8eL	8g	8E	8e	.	8cc
.	.	.	.	8C	.	8e	8g	8E	8c	.	8cc
=68	=68	=68	=68	=68	=68	=68	=68	=68	=68	=68	=68
8r	8r	8r	8r	8GGL	8r	8dL	8gL	8GL	8dL	2r	8bL
8G	8B	8d	8g	16GG	8D	16d	16g	16G	16d	.	16b
.	.	.	.	16GG	.	16d	16d	16G	16d	.	16b
8DL	8dL	8dL	8gL	8DL	8DL	8dL	8dL	8AL	8dL	.	8aL
8D	8D	8d	8f	8D	8D	8A	8d	8D	8d	.	8a
4G	4d	4B	4g	4GG	4D	8BL	8dL	8DL	8dL	8r	8gL
.	.	.	.	.	.	8r	8r	8G	8d	8e	8dd
4r	4r	4r	4r	4r	4r	4r	4r	8A	8a	8eL	8dd
.	.	.	.	.	.	.	.	8A	8a	8e	8cc
=69	=69	=69	=69	=69	=69	=69	=69	=69	=69	=69	=69
1r	1r	1r	1r	8r	8r	8r	8r	4D	4f	4d	4dd
.	.	.	.	8D	8d	8A	8a	.	.	.	.
.	.	.	.	8EL	8BL	8eL	8aL	4r	4r	4r	4r
.	.	.	.	8E	8B	8e	8g	.	.	.	.
.	.	.	.	4AA	4A	4c	8.aL	8r	8r	8r	8r
.	.	.	.	.	.	.	.	8A	8c	8e	8a
.	.	.	.	.	.	.	16r	.	.	.	.
.	.	.	.	4r	4r	4r	4r	8EL	8BL	8eL	8aL
.	.	.	.	.	.	.	.	8E	8B	8e	8g
=70	=70	=70	=70	=70	=70	=70	=70	=70	=70	=70	=70
4r	4r	4r	4r	4r	4r	2r	4r	4A	4A	4c	4a
4AA	4E	4c	4e	4AA	8r	.	4cc	4E	4e	4c	4a
.	.	.	.	.	8c	.	.	.	.	.	.
4E	4.E	4.G	4e	4C	8cL	8r	4cc	4E	4c	4c	4.g
.	.	.	.	.	8c	8e	.	.	.	.	.
4C	.	.	4e	4C	4G	8eL	4cc	4E	4g	4c	.
.	8G	8G	.	.	.	8e	.	.	.	.	8g
=71	=71	=71	=71	=71	=71	=71	=71	=71	=71	=71	=71
4G	4G	8BL	4d	4GG	8GL	4B	4b	4G	8gL	4d	4g
.	.	4d	.	.	8G	.	.	.	4G	.	.
8GL	4GG	.	8dL	8GGL	2d	8.BL	8bL	8GL	.	8dL	8gL
8G	.	8d	8g	8GG	.	.	8b	8G	8B	8d	8d
.	.	.	.	.	.	16d	.	.	.	.	.
4D	2r	4d	4g	4D	.	4.d	4a	4.A	4.d	4d	4d
4D	.	4A	4f	4D	4D	.	4a	.	.	4d	4dd
.	.	.	.	.	.	8d	.	8D	8d	.	.
=72	=72	=72	=72	=72	=72	=72	=72	=72	=72	=72	=72
*M3/4	*M3/4	*M3/4	*M3/4	*M3/4	*M3/4	*M3/4	*M3/4	*M3/4	*M3/4	*M3/4	*M3/4
2G	2r	2B	2g	2.GG	2.D	2.d	2.g	2.D	2.B	2.d	2.dd
4GG	4G	4B	4d	.	.	.	.	.	.	.	.
=73	=73	=73	=73	=73	=73	=73	=73	=73	=73	=73	=73
2C	2G	2c	2e	2.r	2.r	2.r	2.r	2.r	2.r	2.r	2.r
4D	4F	4A	4d	.	.	.	.	.	.	.	.
=74	=74	=74	=74	=74	=74	=74	=74	=74	=74	=74	=74
2.GG	2.G	2.B	2.d	2.r	2.r	2.r	2.r	2r	2r	2r	2r
.	.	.	.	.	.	.	.	4G	4g	4b	4dd
=75	=75	=75	=75	=75	=75	=75	=75	=75	=75	=75	=75
2.r	2.r	2.r	2.r	2.r	2.r	2.r	2.r	2c	2g	2cc	2ee
.	.	.	.	.	.	.	.	4d	4f	4a	4dd
=76	=76	=76	=76	=76	=76	=76	=76	=76	=76	=76	=76
2.r	2.r	2.r	2.r	2r	2r	2r	2r	2G	2g	2b	2dd
.	.	.	.	4D	4A	4d	4a	4D	4f	4r	4dd
=77	=77	=77	=77	=77	=77	=77	=77	=77	=77	=77	=77
2.r	2.r	2.r	2.r	2GG	2G	2d	2b-	4G	4d	4.g	2dd
.	.	.	.	.	.	.	.	4E	2e	.	.
.	.	.	.	.	.	.	.	.	.	4e	.
.	.	.	.	4AA	4E	4A	4a	4A	.	.	4cc
.	.	.	.	.	.	.	.	.	.	8a	.
=78	=78	=78	=78	=78	=78	=78	=78	=78	=78	=78	=78
2r	2.r	2r	2r	2D	2F#	2A	2a	2D	2d	2a	2dd
4G	.	4d	4g	4GG	4G	4B	4dd	4d	4r	4r	4b
=79	=79	=79	=79	=79	=79	=79	=79	=79	=79	=79	=79
2D	4A	2d	2f#	2D	2A	2d	2dd	2d	4d	4.a	2a
.	4D	.	.	.	.	.	.	.	[4A	.	.
.	.	.	.	.	.	.	.	.	.	8d	.
4D	4D	4D	4f#	4D	4A	4d	4dd	4d	8AL	4d	4a
.	.	.	.	.	.	.	.	.	8d	.	.
=80	=80	=80	=80	=80	=80	=80	=80	=80	=80	=80	=80
*M4/4	*M4/4	*M4/4	*M4/4	*M4/4	*M4/4	*M4/4	*M4/4	*M4/4	*M4/4	*M4/4	*M4/4
2GG	2D	2d	2g	2G	2G	2d	2dd	2d	2B	2d	2b
2r	4r	4r	4r	4r	4r	2r	4r	4r	4r	4r	2r
.	4G	4B	[4g	[4E	[4G	.	[4ee	[4B	[4G	[4e	.
=81	=81	=81	=81	=81	=81	=81	=81	=81	=81	=81	=81
4r	2E	4G	4g	4E	4G	4r	4ee	4B	4G	4e	4r
2E	.	4G	4g	4E	4G	2g	4e	4B	2g	4e	2ee
.	2E	4c	4.g	2C	2G	.	4.cc	2c	.	4.e	.
4C	.	[4G	.	.	.	4g	.	.	[4c	.	4e
.	.	.	8f	.	.	.	8dd	.	.	8f	.
=82	=82	=82	=82	=82	=82	=82	=82	=82	=82	=82	=82
1C	4E	4G	4e	4C	4C	1g	4.ee	4G	8cL	1g	4.cc
.	.	.	.	.	.	.	.	.	8d	.	.
.	4E	4G	4c	4C	4G	.	.	4c	2e	.	.
.	.	.	.	.	.	.	8dd	.	.	.	8dd
.	4E	2G	2g	4C	4G	.	4.cc	4c	.	.	2ee
.	[4G	.	.	4C	4G	.	.	4c	4c	.	.
.	.	.	.	.	.	.	8g	.	.	.	.
=83	=83	=83	=83	=83	=83	=83	=83	=83	=83	=83	=83
1GG	4G	4.G	1g	1G	1G	4.g	1b	1B	1d	1g	1dd
.	4D	.	.	.	.	.	.	.	.	.	.
.	.	8A	.	.	.	16f	.	.	.	.	.
.	.	.	.	.	.	16e	.	.	.	.	.
.	2D	2B	.	.	.	2d	.	.	.	.	.
==	==	==	==	==	==	==	==	==	==	==	==
*-	*-	*-	*-	*-	*-	*-	*-	*-	*-	*-	*-
